X: 57
T: No_61_Buffalo_Dance_Song_(b).krn
N: Derived from No_61_Buffalo_Dance_Song_(b).krn
%%abc-version 2.0
%%abcx-abcm2ps-target-version 5.9.1 (29 Sep 2008)
%%abc-creator hum2abc beta
%%abcx-conversion-date 2019/03/15 08:25:35
%%humdrum-veritas 3907629753
%%humdrum-veritas-data 3895064892
%%linebreak <none>
%%barnumbers 0
L: 1/8
M: 2/4
K: A clef=bass
[K:clef=bass][M:2/4]z2z3/ ^D/ ]|:  
D2DC | 
[M:3/4]B,2B,3/B,/ ^DC | 
^D6- | 
[M:2/4]D2^D z/ E/ | 
^D2DC | 
B,2B,3/B,/ | 
[M:3/4]!fermata!C!fermata!B, A,/A,3/-A,2 | 
A,6- | 
A,2A,2z3/ B,/ | 
[M:2/4]A,2A,F, | 
[M:3/4]F,E,- E,E, G,F, | 
A,6- | 
[M:2/4]A,2A, z/ B,/ | 
A,2A,F, | 
F,E,-E,2 | 
A,2A,F, | 
F,E, D,F, | 
E,2E,2 | 
[M:3/4]E,2E,2z2 | 
[M:2/4]F,/E,3/ F,/E,3/ | 
E,/E,3/-E,2 | 
E,2E,2 | 
E,4- | 
E,4 | 
E,2E,E, | 
z4 | 
E,2E,2 | 
E,4- | 
E,4 | 
E,2z2 [I:setbarnb 32]:|]  
E,2z3/ D/ | 
B,3/B,/B,2 | 
EE/C/B,2 | 
DB, A,/A,3/ | 
[M:3/4]A,4A, z/ B,/ | 
[M:2/4]A,2A,F, | 
[M:3/4]F,E,- E,E, G,F, | 
[M:2/4]A,4- | 
[M:3/4]A,4A, z/ B,/ | 
[M:2/4]A,2A,F, | 
[M:3/4]F,E,-E,4 | 
[M:2/4]A,2A,F, | 
F,E, D,F, | 
E,2E,2 | 
[M:3/4]E,2E,2z2 | 
[M:2/4]F,/E,3/ F,/E,3/ | 
E,/E,3/E,2 | 
E,2E,2 | 
E,4- | 
E,4 | 
E,2E,2 | 
E,2z2 |]  



